tools/download-figma-icons/icons/outlined-medium/high5.svg

<svg width="25" height="24" viewBox="0 0 25 24" fill="none" xmlns="http://www.w3.org/2000/svg">
<path fill-rule="evenodd" clip-rule="evenodd" d="M8.58911 3.0843C8.69186 3.40155 8.98511 3.6033 9.30236 3.6033C9.37886 3.6033 9.45611 3.59205 9.53336 3.5673C9.92711 3.44055 10.1431 3.0168 10.0156 2.62305L9.33611 0.519302C9.20936 0.126302 8.79011 -0.0904485 8.39186 0.0370515C7.99811 0.163052 7.78211 0.586802 7.90961 0.980552L8.58911 3.0843ZM22.4772 13.867C22.4772 13.8677 22.4765 13.8685 22.4765 13.8692C22.4562 13.924 22.4255 13.9697 22.409 13.984L18.044 17.3852C16.8417 18.2912 15.3222 18.5252 13.9827 18.0145C13.796 17.9432 13.6167 17.8592 13.4472 17.7647C13.52 17.5945 13.5845 17.4197 13.6415 17.2435C13.6459 17.2287 13.6496 17.2138 13.6534 17.1989C13.658 17.1804 13.6627 17.162 13.6685 17.1437C13.7157 16.987 13.7585 16.8287 13.793 16.669C13.8026 16.625 13.81 16.5804 13.8174 16.5357C13.8216 16.5104 13.8259 16.485 13.8305 16.4597C13.853 16.3337 13.874 16.2085 13.889 16.081C13.8954 16.0251 13.8999 15.9689 13.9044 15.9128L13.91 15.844C13.9197 15.7232 13.9257 15.6025 13.9287 15.481C13.9302 15.4 13.9302 15.319 13.9287 15.2365C13.9257 15.1142 13.919 14.992 13.9092 14.8697C13.907 14.8437 13.9051 14.8178 13.9031 14.792L13.9031 14.792L13.9031 14.7919L13.9031 14.7919C13.8991 14.7389 13.895 14.6861 13.889 14.6327C13.8725 14.5007 13.8507 14.368 13.8267 14.2352C13.8215 14.2075 13.8169 14.1797 13.8123 14.152L13.8123 14.152C13.8057 14.1124 13.7991 14.0728 13.7907 14.0335C13.748 13.8347 13.6977 13.6367 13.6355 13.441L12.461 9.95123L13.6677 6.77798C13.709 6.66923 13.7915 6.61898 13.8372 6.59873C13.8837 6.57698 13.9775 6.54848 14.0615 6.57923L14.162 6.62123C14.2655 6.66098 14.3165 6.73448 14.3412 6.78923C14.3622 6.83573 14.39 6.92873 14.348 7.03898L13.3092 9.76598C13.1622 10.1537 13.3565 10.5872 13.7427 10.7342C13.8312 10.768 13.922 10.7837 14.0105 10.7837C14.312 10.7837 14.597 10.6 14.7117 10.3007L15.7505 7.57223L16.4885 5.63498C16.559 5.44748 16.7712 5.35148 16.9572 5.42423C17.0502 5.46023 17.1215 5.52698 17.159 5.61098C17.1875 5.67548 17.21 5.77898 17.1695 5.89748L15.7205 9.69923C15.5735 10.087 15.7677 10.5205 16.154 10.6675C16.2425 10.7012 16.3332 10.717 16.4217 10.717C16.7232 10.717 17.0082 10.5332 17.1222 10.234L18.5682 6.43898C18.569 6.43748 18.5699 6.43635 18.5709 6.43523L18.5726 6.43294L18.5735 6.43148L19.007 5.28473C19.0805 5.09573 19.2935 5.00123 19.4795 5.07098C19.601 5.11748 19.6565 5.20973 19.682 5.26748C19.706 5.31773 19.7375 5.41973 19.6895 5.54123L19.019 7.30073C19.0181 7.30298 19.018 7.30523 19.0179 7.30748L19.0178 7.30898L19.0175 7.31198L17.7447 10.6517C17.5977 11.0387 17.792 11.4722 18.1797 11.6192C18.2675 11.653 18.3575 11.668 18.446 11.668C18.7475 11.668 19.0325 11.4842 19.1472 11.185L20.4222 7.83623C20.4222 7.83473 20.4222 7.83398 20.423 7.83323C20.471 7.71323 20.5617 7.65623 20.6135 7.63298C20.6652 7.60973 20.7717 7.57973 20.9 7.62998C21.0125 7.67123 21.0695 7.75448 21.0935 7.80848C21.1182 7.86323 21.1505 7.97348 21.1025 8.09873L19.358 12.6812L18.6845 12.9272C18.0417 12.679 16.6302 12.3887 15.0912 13.6877C14.774 13.9547 14.735 14.428 15.0012 14.7445C15.1497 14.92 15.362 15.0107 15.5757 15.0107C15.746 15.0107 15.9177 14.953 16.058 14.8345C17.2415 13.8377 18.167 14.3222 18.2577 14.3747C18.4542 14.4962 18.695 14.5187 18.911 14.4422L20.195 13.9727C20.1965 13.972 20.1972 13.9712 20.1987 13.9705L21.8735 13.3862C22.2825 13.2447 22.4118 13.4783 22.459 13.5638L22.46 13.5655C22.5305 13.6915 22.4952 13.8182 22.4772 13.867ZM9.57572 19.5167C8.21597 19.9772 6.70772 19.6832 5.55047 18.7412L1.60997 15.391C1.57172 15.3565 1.54172 15.31 1.52147 15.2462C1.48697 15.1457 1.49747 15.0377 1.55297 14.947C1.62647 14.8247 1.75997 14.7602 1.87847 14.7602C1.92947 14.7602 1.97747 14.7722 2.01722 14.7955L3.63272 15.9092C3.89822 16.093 4.25147 16.0855 4.51022 15.8897C4.76822 15.6955 4.87172 15.358 4.76897 15.052L2.83847 9.32724C2.79797 9.20799 2.83547 9.10149 2.86172 9.04824C2.90222 8.96349 2.97572 8.90124 3.06872 8.86974C3.16322 8.83749 3.26222 8.84499 3.35072 8.88849C3.39947 8.91399 3.48872 8.97324 3.52997 9.09399L3.53072 9.09849C3.53114 9.10017 3.53203 9.10114 3.53299 9.1022C3.53375 9.10303 3.53456 9.10392 3.53522 9.10524L4.67747 12.493C4.78247 12.8065 5.07422 13.0037 5.38772 13.0037C5.46647 13.0037 5.54822 12.991 5.62697 12.964C6.01997 12.832 6.23072 12.4067 6.09797 12.0137L4.95347 8.61849C4.95347 8.61798 4.9533 8.61756 4.95307 8.61719L4.95253 8.61648C4.95223 8.61611 4.95197 8.6158 4.95197 8.61549C4.95122 8.61474 4.95122 8.61399 4.95122 8.61399L4.35197 6.83424C4.31147 6.71499 4.33922 6.61974 4.37297 6.55299C4.40297 6.49149 4.46222 6.41049 4.58597 6.36999C4.70597 6.32949 4.80797 6.36399 4.85747 6.38799C4.90847 6.41349 5.00147 6.47499 5.04347 6.59724L5.43422 7.76199C5.4346 7.76312 5.43516 7.76387 5.43572 7.76462L5.43638 7.76552L5.43722 7.76724L6.73622 11.6207C6.84122 11.9342 7.13297 12.1315 7.44647 12.1315C7.52522 12.1315 7.60697 12.1187 7.68572 12.0917C8.07872 11.9597 8.28947 11.5345 8.15672 11.1415L6.85772 7.28649V7.28574C6.82772 7.19349 6.83522 7.09449 6.87947 7.00299C6.92147 6.91749 6.99497 6.85299 7.08572 6.82224C7.27622 6.75699 7.48472 6.85974 7.54847 7.05024L8.20847 9.01299C8.20922 9.01524 8.21035 9.01693 8.21147 9.01862C8.2126 9.0203 8.21372 9.02199 8.21447 9.02424L9.14372 11.7805C9.24872 12.094 9.54047 12.2905 9.85397 12.2905C9.93272 12.2905 10.0145 12.2785 10.0932 12.2515C10.4862 12.1195 10.697 11.6942 10.5642 11.3012L9.63197 8.53524L9.63097 8.53355L9.62972 8.53149C9.57647 8.35974 9.66572 8.18124 9.84197 8.12124L9.90497 8.09874C10.0782 8.04024 10.2665 8.13174 10.322 8.30199L12.2105 13.9075C12.26 14.065 12.302 14.2247 12.3357 14.3845C12.5682 15.5072 12.3935 16.6727 11.8325 17.647L11.8324 17.6481L11.8321 17.6487L11.8317 17.6492C11.3202 18.5335 10.5192 19.1965 9.57572 19.5167ZM23.7702 12.835C23.2955 11.9755 22.3602 11.6327 21.3837 11.9687L21.2112 12.0287L22.5035 8.63348C22.6805 8.17298 22.6685 7.66673 22.4645 7.20023C22.259 6.74348 21.8892 6.39623 21.431 6.22673C21.314 6.18173 21.1932 6.14798 21.0717 6.12773L21.0897 6.07898C21.2712 5.61173 21.2555 5.10173 21.0507 4.65248C20.8482 4.19573 20.4792 3.84698 20.0127 3.66923C19.2432 3.37523 18.3957 3.62948 17.9 4.23923C17.7755 4.15223 17.6382 4.07948 17.4912 4.02248C16.5312 3.66098 15.4505 4.14323 15.0867 5.10248L14.9892 5.35823C14.903 5.30798 14.8137 5.26448 14.7207 5.22923L14.621 5.18798C14.1657 5.01548 13.6707 5.03048 13.2252 5.22848C12.7782 5.42873 12.437 5.79023 12.2652 6.24623L11.7012 7.72898C11.3457 6.84173 10.3542 6.36923 9.42049 6.67898L9.35224 6.70298C9.24874 6.73823 9.15049 6.78248 9.05749 6.83348L8.97049 6.57248C8.64349 5.60048 7.58674 5.07023 6.60424 5.40173C6.45799 5.45123 6.31999 5.51798 6.19324 5.60048C6.01774 5.36498 5.78749 5.17298 5.51749 5.04023C5.07049 4.82198 4.56724 4.79198 4.10974 4.94723C3.63499 5.10173 3.25024 5.43773 3.03124 5.88248C2.80549 6.32798 2.77024 6.83648 2.93074 7.31348L2.94799 7.36523C2.82724 7.38173 2.70649 7.40948 2.58724 7.44848C2.11249 7.61123 1.73074 7.94498 1.51474 8.38748C1.29274 8.83898 1.25899 9.34598 1.41874 9.81023L2.64124 13.4365C1.79449 13.0465 0.768486 13.3495 0.271236 14.1677C-0.0160142 14.6402 -0.0775142 15.2125 0.0987358 15.7217C0.194736 16.0187 0.367986 16.288 0.617736 16.516L4.59049 19.894C5.66824 20.7715 6.96724 21.2305 8.27449 21.2305C8.87374 21.2305 9.47449 21.1345 10.0565 20.938C11.0967 20.5847 12.005 19.9255 12.6822 19.0547C12.9252 19.1927 13.1802 19.3135 13.4472 19.4155C14.0885 19.6607 14.759 19.7815 15.4295 19.7815C16.6647 19.7815 17.9 19.3712 18.956 18.5762L23.3547 15.148C23.5902 14.9485 23.7732 14.6867 23.8827 14.3905C24.0762 13.873 24.0335 13.303 23.7702 12.835ZM14.37 20.4314C14.7675 20.3046 15.1875 20.5221 15.3142 20.9144L15.9937 23.0181C16.1212 23.4119 15.9052 23.8356 15.5115 23.9616C15.4342 23.9871 15.357 23.9984 15.2805 23.9984C14.9632 23.9984 14.67 23.7966 14.5672 23.4794L13.8877 21.3756C13.7602 20.9819 13.9762 20.5581 14.37 20.4314ZM5.18329 3.59333L6.15979 4.21583C6.28504 4.29608 6.42454 4.33358 6.56254 4.33358C6.81004 4.33358 7.05229 4.21133 7.19554 3.98708C7.41754 3.63833 7.31554 3.17408 6.96679 2.95208L5.99029 2.32883C5.64079 2.10683 5.17729 2.20883 4.95454 2.55758C4.73179 2.90708 4.83454 3.37058 5.18329 3.59333ZM18.0137 20.4149L18.9902 21.0382C19.3397 21.2609 19.4417 21.7244 19.2189 22.0739C19.0757 22.2982 18.8334 22.4204 18.5859 22.4204C18.4472 22.4204 18.3084 22.3822 18.1832 22.3027L17.2067 21.6787C16.8572 21.4567 16.7559 20.9924 16.9779 20.6437C17.1999 20.2934 17.6634 20.1914 18.0137 20.4149ZM11.8132 2.5372C11.8995 2.56945 11.988 2.58445 12.0757 2.58445C12.3795 2.58445 12.666 2.39845 12.7777 2.09695L13.1827 1.01245C13.3282 0.623949 13.131 0.192699 12.7425 0.0479487C12.3547 -0.0960513 11.9227 0.0996987 11.778 0.488199L11.373 1.5727C11.2282 1.96045 11.4247 2.39245 11.8132 2.5372ZM11.2156 21.901C11.3604 21.5132 11.7939 21.3167 12.1809 21.4615C12.5686 21.6062 12.7651 22.039 12.6204 22.4267L12.2146 23.5112C12.1021 23.8127 11.8164 23.9987 11.5119 23.9987C11.4249 23.9987 11.3356 23.983 11.2494 23.9507C10.8616 23.806 10.6651 23.374 10.8099 22.9855L11.2156 21.901Z" fill="black"/>
</svg>

<svg width="25" height="24" viewBox="0 0 25 24" fill="none" xmlns="http://www.w3.org/2000/svg"><path fill-rule="evenodd" clip-rule="evenodd" d="M8.59 3.084a.75.75 0 1 0 1.426-.46L9.336.518A.748.748 0 1 0 7.91.981l.68 2.103Zm13.887 10.783v.002a.331.331 0 0 1-.068.115l-4.365 3.401c-1.202.906-2.722 1.14-4.061.63a4.118 4.118 0 0 1-.536-.25 6.04 6.04 0 0 0 .195-.521l.011-.045a6.156 6.156 0 0 0 .14-.53 2.673 2.673 0 0 0 .038-.21c.022-.125.043-.25.058-.378l.015-.168.006-.069a6.548 6.548 0 0 0 .019-.607 6.624 6.624 0 0 0-.02-.367l-.006-.078a4.351 4.351 0 0 0-.076-.557l-.015-.083a6.368 6.368 0 0 0-.177-.711l-1.174-3.49 1.207-3.173a.319.319 0 0 1 .17-.18.311.311 0 0 1 .224-.019l.1.042a.323.323 0 0 1 .186.418l-1.039 2.727a.75.75 0 0 0 1.403.535l1.039-2.729.737-1.937a.363.363 0 0 1 .47-.21.36.36 0 0 1 .201.186.393.393 0 0 1 .01.286L15.72 9.7a.75.75 0 0 0 1.402.535l1.446-3.795.003-.004.002-.002V6.43l.434-1.146a.37.37 0 0 1 .473-.214.36.36 0 0 1 .202.196.34.34 0 0 1 .008.274l-.671 1.76a.02.02 0 0 0-.001.006v.005l-1.273 3.34a.75.75 0 0 0 1.402.533l1.275-3.349.001-.003a.368.368 0 0 1 .19-.2.369.369 0 0 1 .287-.003c.113.041.17.124.194.178a.379.379 0 0 1 .008.29l-1.744 4.583-.674.246c-.642-.248-2.054-.538-3.593.76a.75.75 0 0 0 .967 1.148c1.183-.997 2.109-.513 2.2-.46a.76.76 0 0 0 .653.067l1.284-.47.004-.002 1.674-.584c.41-.141.539.092.586.178l.001.002c.07.125.035.252.017.301Zm-12.901 5.65c-1.36.46-2.868.166-4.026-.776l-3.94-3.35a.318.318 0 0 1-.089-.145.35.35 0 0 1 .032-.299.389.389 0 0 1 .325-.187c.051 0 .1.012.14.036l1.615 1.113a.75.75 0 0 0 1.136-.857l-1.93-5.725a.368.368 0 0 1 .23-.457.365.365 0 0 1 .461.224v.004l.003.004.002.003 1.142 3.388a.748.748 0 1 0 1.421-.48L4.953 8.619v-.002h-.001v-.002l-.6-1.78a.35.35 0 0 1 .021-.281.348.348 0 0 1 .213-.183.36.36 0 0 1 .271.018.37.37 0 0 1 .186.21l.391 1.164.002.003.001.002 1.3 3.854a.749.749 0 1 0 1.42-.48l-1.3-3.855a.376.376 0 0 1 .022-.283.364.364 0 0 1 .669.047l.66 1.963.003.006a.022.022 0 0 1 .003.005l.93 2.757a.748.748 0 0 0 .95.47.749.749 0 0 0 .47-.95l-.932-2.766-.001-.001-.001-.003a.327.327 0 0 1 .212-.41l.063-.022a.327.327 0 0 1 .417.203l1.889 5.606c.049.157.091.317.125.476a4.653 4.653 0 0 1-.504 3.263v.002a4.16 4.16 0 0 1-2.256 1.868Zm14.194-6.682c-.474-.86-1.41-1.202-2.386-.866l-.173.06 1.293-3.396a1.87 1.87 0 0 0-.04-1.433 1.829 1.829 0 0 0-1.033-.973 1.852 1.852 0 0 0-.36-.1l.019-.048a1.828 1.828 0 0 0-.04-1.427 1.846 1.846 0 0 0-1.037-.983 1.868 1.868 0 0 0-2.113.57 1.87 1.87 0 0 0-2.813.863l-.098.256a1.8 1.8 0 0 0-.268-.129l-.1-.041a1.823 1.823 0 0 0-2.356 1.058l-.564 1.483a1.83 1.83 0 0 0-2.28-1.05l-.069.024a1.86 1.86 0 0 0-.295.13l-.087-.26A1.866 1.866 0 0 0 6.193 5.6a1.868 1.868 0 0 0-.676-.56 1.847 1.847 0 0 0-1.407-.093 1.83 1.83 0 0 0-1.079.935 1.843 1.843 0 0 0-.1 1.431l.017.052a1.85 1.85 0 0 0-1.433 1.022 1.847 1.847 0 0 0-.096 1.423l1.222 3.627a1.866 1.866 0 0 0-2.37.73A1.84 1.84 0 0 0 .1 15.723c.096.297.269.566.519.794l3.972 3.378c1.078.878 2.377 1.337 3.684 1.337.6 0 1.2-.097 1.783-.293a5.625 5.625 0 0 0 2.625-1.883 5.58 5.58 0 0 0 2.748.727c1.235 0 2.47-.41 3.526-1.206l4.399-3.428c.235-.2.418-.461.528-.758a1.852 1.852 0 0 0-.113-1.555Zm-9.4 7.596a.75.75 0 0 1 .944.483l.68 2.104a.749.749 0 1 1-1.427.461l-.68-2.103a.75.75 0 0 1 .483-.945ZM5.183 3.593l.977.623a.75.75 0 1 0 .807-1.264L5.99 2.33a.751.751 0 0 0-.807 1.264Zm12.83 16.822.977.623a.75.75 0 1 1-.807 1.265l-.976-.624a.75.75 0 1 1 .807-1.264Zm-6.2-17.878a.747.747 0 0 0 .965-.44l.405-1.085a.75.75 0 0 0-1.405-.524l-.405 1.085a.75.75 0 0 0 .44.964Zm-.597 19.364a.75.75 0 0 1 1.404.526l-.405 1.084a.75.75 0 1 1-1.405-.526l.406-1.084Z" fill="currentColor"/></svg>
